X:66
T:BEWARRP5- Logie o' Buchan
S:SMM #358
L:1/8
M:6/8
K:Bm
(F/E/)|D3/2E/ F F/ d3/2 B|A F FF2(F/E/)|\
D3/2 E/ F F/ B3/2 c|d B B B2||\
d/e/|f3/2 e/ f{g}a2{g}f/ e/|d3/2 e/ f A2(d/e/)|\
f3/2 g/ f e/ d3/2 e|f d B B2||]

